X: 245
T: I'll Be a Good Boy   #2
R: air, waltz
%S: s:3 b:14(4+6+4)
B: O'Neill's 1850 #245
O: J.O'Neill
Z: 1997 by John Chambers <jc@trillian.mit.edu>
N: Compacted via repeats and multiple endings [JC]
N: Compacted by using labels and play order [JC]
P: Play AB1 B2C
Q: "Moderate"
M: 3/4
L: 1/8
K: D
"^A"[|] (Ad)  |  f2 (gf) (ed) | (c2 A2) (A>G)| (F2 D2) D>E | D4 (Ad) |]
"^B"[|  (Ad)  |: (fg  a2) (gf) | (ef g2) (fe) |1 (dc A2) A2  | A4 (de) :|2 d>c de  fg  | f4 |]
"^C"[| e(f/e/)| (d2  A2) (A>G)| (F2 D2) (FG) | (A2 d2) (d{f}e) | Hd4 |]
